X: 1
T: Farewell To Nigg
C: D. Johnstone
R: air, march, waltz
Z: 2014 John Chambers <jc:trillian.mit.edu>
F: http://ocsession.eu/?p=1185
Q: 80
M: 3/4
L: 1/16
K: Hp
{g}B3c |\
{Gdc}d4 {gcd}c3B {g}A2{d}c2 | {g}B4- B4 {Gdc}d3e | {gfg}f4 {Gdc}d3e {g}f2a2 | {fg}f4- f4 {g}f2a2 |
{fg}f4 {g}B4 {Gdc}d2e2 | {gcd}c3B {g}A4 {gcd}c2e2 | {gfg}f4 {gef}e3c {g}A2{d}c2 | {g}B4- B4 :|
|: {Gdc}d3e |\
{gfg}f4 {g}f4 {ag}a2e2 | {g}f4 {g}B4 {Gdc}d3e | {g}f4 {g}f2a2 {g}f3e | {g}c4- c4 {gcd}c2e2 |
{g}f4 {g}B4 {Gcd}d2e2 | {gcd}c3B {G}A4 {gcd}c2e2 | {g}f4 {gef}e3c {g}A2{d}c2 | {g}B4- B4 :|
|: {g}B3c |\
{Gdc}d4 {g}e4 {gcd}c2{e}A2 | {d}B4- B4 {Gdc}d3e | {g}f4 {Gdc}d3e {g}f2a2 | {fg}f4- f4 {ag}a2e2 |
{g}f4 {g}B4 {Gdc}d2e2 | {gcd}c3B {G}A4 {gcd}c2e2 | {g}f4 {gef}e3c {g}A2{d}c2 | {g}B4- B4 :|
|: {Gdc}d3e |\
{g}f4 {g}f2a2 {fg}f2e2 | {g}f4 {g}B4 {Gdc}d3e | {g}f4 {g}f2a2 {fg}f3e | {g}A4- A4 {ag}a2e2 |
{g}f4 {g}B4 {Gdc}d2e2 | {gcd}c3B {G}A4 {gcd}c2e2 | {g}f4 {gef}e3c {g}A2{d}c2 | {g}B4- B4 :|
